sprites/actors/ghost_scared/ghost_scared_down_alternate.svg

<?xml version="1.0" encoding="UTF-8" standalone="no"?>
<!-- Created with Inkscape (http://www.inkscape.org/) -->

<svg
   width="100"
   height="100"
   viewBox="0 0 100 100"
   version="1.1"
   id="svg5"
   inkscape:version="1.2 (dc2aeda, 2022-05-15)"
   sodipodi:docname="ghost_scared_down_alternate.svg"
   xmlns:inkscape="http://www.inkscape.org/namespaces/inkscape"
   xmlns:sodipodi="http://sodipodi.sourceforge.net/DTD/sodipodi-0.dtd"
   xmlns="http://www.w3.org/2000/svg"
   xmlns:svg="http://www.w3.org/2000/svg">
  <sodipodi:namedview
     id="namedview7"
     pagecolor="#ffffff"
     bordercolor="#000000"
     borderopacity="0.25"
     inkscape:showpageshadow="2"
     inkscape:pageopacity="0.0"
     inkscape:pagecheckerboard="0"
     inkscape:deskcolor="#d1d1d1"
     inkscape:document-units="px"
     showgrid="true"
     inkscape:zoom="5.5731762"
     inkscape:cx="46.024025"
     inkscape:cy="54.99557"
     inkscape:window-width="1920"
     inkscape:window-height="1016"
     inkscape:window-x="0"
     inkscape:window-y="0"
     inkscape:window-maximized="1"
     inkscape:current-layer="layer1">
    <inkscape:grid
       type="xygrid"
       id="grid2865" />
  </sodipodi:namedview>
  <defs
     id="defs2">
    <inkscape:perspective
       sodipodi:type="inkscape:persp3d"
       inkscape:vp_x="0 : 50 : 1"
       inkscape:vp_y="0 : 1000 : 0"
       inkscape:vp_z="100 : 50 : 1"
       inkscape:persp3d-origin="50 : 33.333333 : 1"
       id="perspective5340" />
  </defs>
  <g
     inkscape:label="Layer 1"
     inkscape:groupmode="layer"
     id="layer1">
    <path
       id="path13817"
       style="fill:#110485;fill-opacity:1;stroke-width:10"
       d="m 88.15059,38.241912 c 1.767402,5.650724 1.513313,11.354806 1.515831,16.912134 0.0069,15.133555 2.336145,24.776064 -0.602871,33.38026 -0.492324,1.441316 -9.709507,6.097417 -11.630898,1.7972 C 75.079771,85.06558 78.948804,74.814587 75.4118,73.82824 c -2.973034,-0.829075 -5.408635,-0.831464 -5.878477,1.637722 -1.023113,5.376824 0.399518,11.798141 -1.471889,14.605567 -1.957218,2.936158 -7.340533,2.314068 -9.253882,0.63576 -2.506845,-2.198897 -1.603058,-11.803936 -2.943326,-16.14855 -1.124196,-3.644195 -4.179882,-3.969186 -5.762143,-0.998019 -0.47283,0.887879 0.05002,12.225364 -2.574237,15.686284 -2.118493,2.793911 -3.399369,2.629328 -5.057193,-0.415697 -2.447128,-4.494787 -1.40541,-13.447526 -3.74786,-14.335543 -3.13367,-1.187966 -4.203072,-2.21416 -11.537302,-0.371957 -3.165479,0.795101 -1.981233,12.360706 -3.806758,14.911916 C 22.51782,90.238867 13.050904,91.689587 10.989239,85.927659 9.9983419,83.158306 10.528036,56.442006 10.279775,53.627516 8.6674062,35.348351 19.89767,17.771464 38.127833,12.0641 46.669214,9.3900281 55.434158,9.7326425 63.274037,12.49111 74.743495,16.526648 84.233072,25.732745 88.146273,38.228118 L 50.05386,50.157593 Z"
       sodipodi:nodetypes="cssssssssssssssssssccc" />
    <path
       style="fill:#ffff64;fill-opacity:1;stroke-width:10"
       id="path14682-9"
       sodipodi:type="arc"
       sodipodi:cx="64.275505"
       sodipodi:cy="35.912117"
       sodipodi:rx="10.931968"
       sodipodi:ry="10.931968"
       sodipodi:start="5.9800505"
       sodipodi:end="5.9796884"
       sodipodi:arc-type="slice"
       d="M 74.709034,32.648777 A 10.931968,10.931968 0 0 1 67.53979,46.345351 10.931968,10.931968 0 0 1 53.842567,39.177346 10.931968,10.931968 0 0 1 61.009331,25.479475 10.931968,10.931968 0 0 1 74.707852,32.644999 l -10.432347,3.267118 z" />
    <path
       style="fill:#ffff64;fill-opacity:1;stroke-width:10"
       id="path14682-7"
       sodipodi:type="arc"
       sodipodi:cx="36.017948"
       sodipodi:cy="36.60881"
       sodipodi:rx="10.931968"
       sodipodi:ry="10.931968"
       sodipodi:start="5.9800505"
       sodipodi:end="5.9796884"
       sodipodi:arc-type="slice"
       d="M 46.451477,33.34547 A 10.931968,10.931968 0 0 1 39.282233,47.042044 10.931968,10.931968 0 0 1 25.58501,39.87404 10.931968,10.931968 0 0 1 32.751774,26.176168 10.931968,10.931968 0 0 1 46.450295,33.341692 L 36.017948,36.60881 Z" />
    <path
       style="fill:#000000;fill-opacity:1;stroke-width:8.75852"
       id="path25750"
       sodipodi:type="arc"
       sodipodi:cx="50.929985"
       sodipodi:cy="60.14579"
       sodipodi:rx="18.031754"
       sodipodi:ry="4.353302"
       sodipodi:start="5.9800505"
       sodipodi:end="5.9796884"
       sodipodi:arc-type="slice"
       d="M 68.139588,58.84627 A 18.031754,4.353302 0 0 1 56.314266,64.300487 18.031754,4.353302 0 0 1 33.721357,61.446062 18.031754,4.353302 0 0 1 45.542589,55.991328 18.031754,4.353302 0 0 1 68.137638,58.844766 L 50.929985,60.14579 Z" />
  </g>
</svg>

<svg width="100" height="100" xmlns="http://www.w3.org/2000/svg"><path d="M88.15 38.242c1.768 5.65 1.514 11.355 1.516 16.912.007 15.134 2.337 24.776-.602 33.38-.493 1.442-9.71 6.098-11.631 1.798-2.353-5.266 1.516-15.517-2.021-16.504-2.973-.829-5.409-.831-5.879 1.638-1.023 5.377.4 11.798-1.472 14.606-1.957 2.936-7.34 2.314-9.253.635-2.507-2.199-1.604-11.804-2.944-16.148-1.124-3.644-4.18-3.97-5.762-.998-.473.888.05 12.225-2.574 15.686-2.119 2.794-3.4 2.63-5.057-.416-2.447-4.494-1.406-13.447-3.748-14.335-3.134-1.188-4.203-2.214-11.538-.372-3.165.795-1.98 12.36-3.806 14.912-.861 1.203-10.328 2.654-12.39-3.108-.99-2.77-.461-29.486-.71-32.3-1.612-18.28 9.619-35.857 27.849-41.564a39.74 39.74 0 0 1 25.146.427c11.47 4.036 20.96 13.242 24.872 25.737l-38.092 11.93z" fill="#110485"/><path d="M74.709 32.649a10.932 10.932 0 0 1-7.17 13.696 10.932 10.932 0 0 1-13.696-7.168 10.932 10.932 0 0 1 7.166-13.698 10.932 10.932 0 0 1 13.699 7.166l-10.432 3.267zM46.451 33.345a10.932 10.932 0 0 1-7.169 13.697 10.932 10.932 0 0 1-13.697-7.168 10.932 10.932 0 0 1 7.167-13.698 10.932 10.932 0 0 1 13.698 7.166l-10.432 3.267z" fill="#ffff64"/><path d="M68.14 58.846A18.032 4.353 0 0 1 56.314 64.3a18.032 4.353 0 0 1-22.593-2.854 18.032 4.353 0 0 1 11.822-5.455 18.032 4.353 0 0 1 22.595 2.854l-17.208 1.3z"/></svg>
